packages/foundations/assets/icons/functional/images/communication/chat_14_filled.svg

<svg width="14" height="14" viewBox="0 0 14 14" fill="none" xmlns="http://www.w3.org/2000/svg">
<g clip-path="url(#clip0_2204_2162)">
<path fill-rule="evenodd" clip-rule="evenodd" d="M10.8652 1.42322C11.835 1.42322 12.6135 2.18867 12.5998 3.1728L12.5452 8.74956C12.5316 9.70632 11.7803 10.4991 10.8243 10.4991H4.62336C4.52774 10.4991 4.44583 10.5128 4.37756 10.5811L2.5883 12.3854C2.45169 12.5357 2.27416 12.5767 2.11027 12.5767C1.7278 12.5767 1.40002 12.317 1.40002 11.8797L1.45465 3.14543C1.45465 2.18867 2.23317 1.42322 3.20293 1.42322H10.8652ZM10.5 6.32322H3.50002V7.72322H10.5V6.32322ZM10.5 3.52322H3.50002V4.92322H10.5V3.52322Z" fill="#1A1C1F"/>
</g>
<defs>
<clipPath id="clip0_2204_2162">
<rect width="14" height="14" fill="white"/>
</clipPath>
</defs>
</svg>

<svg xmlns="http://www.w3.org/2000/svg" width="14" height="14" fill="none"><g clip-path="url(#a)"><path fill="#1A1C1F" fill-rule="evenodd" d="M10.865 1.423c.97 0 1.749.766 1.735 1.75l-.055 5.577c-.013.956-.765 1.75-1.72 1.75H4.622c-.095 0-.177.013-.245.081l-1.79 1.804a.62.62 0 0 1-.478.192c-.382 0-.71-.26-.71-.697l.055-8.735a1.73 1.73 0 0 1 1.748-1.722zm-.365 4.9h-7v1.4h7zm0-2.8h-7v1.4h7z" clip-rule="evenodd"/></g><defs><clipPath id="a"><path fill="#fff" d="M0 0h14v14H0z"/></clipPath></defs></svg>
